X: 463
%%etbk:tnset id:209,pos:1,rep:3,ant:
%%etbk:skill ?
T: Green Fields of France
H: Created 2013-02-19 /  No Piano Box Version Yet
M: 3/4
R: song
L: 1/8
K: Fmaj
A,B,|"F"C3 C C2| "dm"F2 F2 E2|"B"D2 D2 B,2|G,4 F2|"C"E3E F2|G2A2G2|"B"F2 B,2 D2|"F"C4 A,B,|
"F"C4 CC|"dm"F2 F2 E2|"B"D2 D2 B,2|G,4 FF|"C"E2 E2 F2|G4 AG|"B"F2 F2 G2|"F"F4 AB|
"F"c2 c3c|c2 B2 A2|"gm"G2 G2 A2|"B"B4 B2|"C"G4 GA|B2 A2 G2|"F"F2 G2 A2|"C"G4 c2|
"F"c3c c2|c2 B2 A2|"gm"G2 G2 F2|"B"D4 D2|"C"E3E F2|G4 FE|"B"F2 F2 G2|"F"F4 EF|
"C"G3G G2|G2 A2 B2|"B,"B3c B2|"F"A2 F2 F2|"C"G3G G2|G2 A2 B2|"B"B3c B2|"C"G6-|
G4 GA|"B"B4 BB|B2 c2 B2|"F"A2 A4-|A4 AG| "dm"F2 G2A2|A2 B2 A2|"C"G3F E2|"F"F6-|F4:|
